X: 20007
T: Jimmy Allen
R: polka
M: 2/4
K: Gmajor
G/A/|:BG GA|B2 GA/B/|cA AB|c2 BA|
Gg ge|d2 B>c|dd c/B/A|1 G3 G/A/:|2 G3 B/A/||
|:Gg g>f|ed cB|Aa a>g|fd ef|
g>a ge|d2 B>c|dd c/B/|1 G3 B/A/:|2 G3||

